X:4147
T:Die Woaf
C:Trad.
O:Austrian
Z:Transcribed and arranged by Daryl Powell
Z:Canberra
P:To be played 4 times
M:3/4
L:1/8
Q:Not too fast
K:G
dd |\
"G"g2 dz dz | dz z2 de | "G"d2 Bz Bz | B4 z2 |
"g"d2 ed cB | d2 ed cB | "A"B2 Az Az | "D"A6 |
"D7"A2 A2 B2 | c2 cB A2 | "G"B2 B2 c2 | d2 dc BA |
"G"d2 ed cB | "G"d2 ed cA | "C"A2 Gz Gz | "G"G4 |]
